X:1
T: Mr. Graham of Orchill
C:Niel Gow
R:Strathspey
Q: 128
K:F
M:4/4
L:1/16
|:f2|cF3 c3A c3F Af3|cF3 c3A G4 G3f|cF3 c3A f3g a3g|f3d c3A G4 G2f2|
cF3 c3A c3F Af3|cF3 c3A G4 G3f|cF3 c3A f3g a3g|f3d c3A G4 G2c2|
f3g a3g f2c2 A2F2|fefg a3c d4 d3g|f3g a2f2 g2a2 f3c|df3 c3A G4 G3c|
f3g a3g f2c2 A2F2|fefg a3c d4 d3g|fefg a3f gfga f3c|df3 c3A G4 G2:|
